X: 35481
T: Royal Irish
R: jig
M: 6/8
K: Gmajor
c|BGB def|gdc B2 G|cec dBg|cAA A2 c|
BGB def|gdc B2 G|Aag fef|gGG G2:|
B|dBB GBB|dBB GBB|cAA FAA|cAA FAA|
dBB ecc|fdd gee|dBB cAf|gGG G2:|

